app/assets/images/gear_dark.svg

<svg height="15" viewBox="0 0 17 15" width="17" xmlns="http://www.w3.org/2000/svg"><path d="m16.5172414 8.8890694v-2.8093888l-2.367482-.35758355c-.0961033-.26505213-.2132725-.52139197-.3499268-.7674408l1.3945132-1.76926532-2.1920186-1.98654608-1.9489377 1.26158496c-.2727603-.12504169-.557102-.23224951-.851154-.32016168l-.3936072-2.14026813h-3.10001522l-.39360715 2.14029736c-.29405206.08791217-.57839379.19512-.85112184.32016169l-1.94896996-1.26158497-2.19205085 1.98654609 1.39451327 1.76929455c-.1366221.24601959-.25379129.50235944-.34989453.76741156l-2.36748202.35755432v2.8093888l2.37303078.35843139c.09613551.26265479.21307886.51671424.34908802.76057041l-1.39925552 1.7753171 2.19205085 1.9865169 1.96229344-1.2702096c.26779223.1220596.54664972.2269871.83495946.3133205l.39644605 2.1557339h3.10001522l.3964461-2.1557631c.2883097-.0863335.5671672-.1912609.8349917-.3132913l1.9622611 1.2701803 2.1920186-1.9865168-1.399191-1.7752879c.1360092-.24385617.252888-.49791562.3490558-.76059964zm-8.25862071.46639935c-1.14027034 0-2.06465517-.83769452-2.06465517-1.87109375 0-1.03337.92438483-1.87109375 2.06465517-1.87109375 1.1403026 0 2.06465521.83772375 2.06465521 1.87109375 0 1.03339923-.92435261 1.87109375-2.06465521 1.87109375z" fill="#4a4a4a" fill-rule="evenodd" transform="translate(.482759 .03125)"/></svg>

<?xml version="1.0" encoding="UTF-8" standalone="no"?>
<svg width="17px" height="15px" viewBox="0 0 17 15" version="1.1" xmlns="http://www.w3.org/2000/svg" xmlns:xlink="http://www.w3.org/1999/xlink" xmlns:sketch="http://www.bohemiancoding.com/sketch/ns">
    <!-- Generator: Sketch 3.4.1 (15681) - http://www.bohemiancoding.com/sketch -->
    <title>cog2</title>
    <desc>Created with Sketch.</desc>
    <defs></defs>
    <g id="Slides" stroke="none" stroke-width="1" fill="none" fill-rule="evenodd" sketch:type="MSPage">
        <g id="Signs--::--Index" sketch:type="MSArtboardGroup" transform="translate(-1029.000000, -258.000000)" fill="#4A4A4A">
            <g id="Card-Copy" sketch:type="MSLayerGroup" transform="translate(255.000000, 225.000000)">
                <g id="Actions" transform="translate(773.000000, 0.000000)" sketch:type="MSShapeGroup">
                    <g id="cog2" transform="translate(1.482759, 33.031250)">
                        <g id="Group">
                            <path d="M16.5172414,8.8890694 L16.5172414,6.0796806 L14.1497594,5.72209705 C14.0536561,5.45704492 13.9364869,5.20070508 13.7998326,4.95465625 L15.1943458,3.18539093 L13.0023272,1.19884485 L11.0533895,2.46042981 C10.7806292,2.33538812 10.4962875,2.2281803 10.2022355,2.14026813 L9.8086283,0 L6.70861308,0 L6.31500593,2.14029736 C6.02095387,2.22820953 5.73661214,2.33541736 5.46388409,2.46045905 L3.51491413,1.19887408 L1.32286328,3.18542017 L2.71737655,4.95471472 C2.58075445,5.20073431 2.46358526,5.45707416 2.36748202,5.72212628 L0,6.0796806 L0,8.8890694 L2.37303078,9.24750079 C2.46916629,9.51015558 2.58610964,9.76421503 2.7221188,10.0080712 L1.32286328,11.7833883 L3.51491413,13.7699052 L5.47720757,12.4996956 C5.7449998,12.6217552 6.02385729,12.7266827 6.31216703,12.8130161 L6.70861308,14.96875 L9.8086283,14.96875 L10.2050744,12.8129869 C10.4933841,12.7266534 10.7722416,12.621726 11.0400661,12.4996956 L13.0023272,13.7698759 L15.1943458,11.7833591 L13.7951548,10.0080712 C13.931164,9.76421503 14.0480428,9.51015558 14.1442106,9.24747156 L16.5172414,8.8890694 L16.5172414,8.8890694 Z M8.25862069,9.35546875 C7.11835035,9.35546875 6.19396552,8.51777423 6.19396552,7.484375 C6.19396552,6.451005 7.11835035,5.61328125 8.25862069,5.61328125 C9.39892329,5.61328125 10.3232759,6.451005 10.3232759,7.484375 C10.3232759,8.51777423 9.39892329,9.35546875 8.25862069,9.35546875 L8.25862069,9.35546875 Z" id="Shape"></path>
                        </g>
                    </g>
                </g>
            </g>
        </g>
    </g>
</svg>
